build/img/main/n4.svg

<svg width="329" height="213" viewBox="0 0 329 213" fill="none" xmlns="http://www.w3.org/2000/svg">
<path d="M82.3193 167.405V170.957H26.5234V167.405H31.1331C36.511 167.405 40.4164 165.836 42.8492 162.7C44.3858 160.651 45.1541 155.722 45.1541 147.913V63.7988C45.1541 57.2054 44.7379 52.8525 43.9056 50.7401C43.2654 49.1397 41.9529 47.7635 39.9682 46.6112C37.1512 45.0749 34.2062 44.3067 31.1331 44.3067H26.5234V40.754H82.3193V44.3067H77.6136C72.2997 44.3067 68.4263 45.8751 65.9935 49.0117C64.3929 51.0601 63.5926 55.9892 63.5926 63.7988V147.913C63.5926 154.506 64.0088 158.859 64.8411 160.971C65.4813 162.572 66.8258 163.948 68.8745 165.1C71.6275 166.637 74.5405 167.405 77.6136 167.405H82.3193Z" fill="white"/>
<path d="M109.977 87.5158V83.0029C116.571 79.0981 121.053 75.4493 123.422 72.0566C125.087 69.6241 125.919 66.7114 125.919 63.3187C125.919 61.3343 125.567 59.862 124.862 58.9018C124.094 57.9416 123.262 57.4615 122.366 57.4615C121.661 57.4615 120.733 57.6855 119.581 58.1336C117.916 58.7098 116.539 58.9978 115.451 58.9978C112.89 58.9978 110.617 58.0376 108.633 56.1172C106.648 54.1968 105.656 51.7963 105.656 48.9157C105.656 45.715 106.648 43.2185 108.633 41.4261C111.322 38.9936 114.523 37.7773 118.236 37.7773C122.526 37.7773 126.367 39.6017 129.76 43.2505C133.217 46.8353 134.946 51.3162 134.946 56.6933C134.946 64.2469 132.097 71.1284 126.399 77.3377C122.622 81.4346 117.148 84.8273 109.977 87.5158Z" fill="white"/>
<path d="M184.884 99.1343C191.286 92.7329 195.063 89.0522 196.216 88.092C199.097 85.6594 202.202 83.771 205.531 82.4268C208.86 81.0825 212.157 80.4103 215.423 80.4103C220.929 80.4103 225.666 82.0107 229.636 85.2113C233.605 88.412 236.262 93.053 237.607 99.1343C244.201 91.4527 249.771 86.4276 254.316 84.0591C258.862 81.6266 263.536 80.4103 268.337 80.4103C273.011 80.4103 277.141 81.6266 280.726 84.0591C284.375 86.4276 287.256 90.3324 289.369 95.7736C290.777 99.4864 291.482 105.312 291.482 113.249V151.081C291.482 156.586 291.898 160.363 292.73 162.412C293.37 163.82 294.555 165.036 296.283 166.06C298.012 167.021 300.829 167.501 304.734 167.501V170.957H261.327V167.501H263.152C266.929 167.501 269.874 166.765 271.987 165.292C273.459 164.268 274.516 162.636 275.156 160.395C275.412 159.307 275.54 156.202 275.54 151.081V113.249C275.54 106.08 274.676 101.023 272.947 98.0781C270.45 93.9812 266.449 91.9328 260.943 91.9328C257.55 91.9328 254.124 92.797 250.667 94.5253C247.274 96.1897 243.145 99.3263 238.279 103.935L238.087 104.992L238.279 109.12V151.081C238.279 157.099 238.599 160.843 239.239 162.316C239.943 163.788 241.224 165.036 243.08 166.06C244.937 167.021 248.106 167.501 252.588 167.501V170.957H208.124V167.501C212.99 167.501 216.319 166.925 218.112 165.772C219.968 164.62 221.249 162.892 221.953 160.587C222.273 159.499 222.433 156.33 222.433 151.081V113.249C222.433 106.08 221.377 100.927 219.264 97.79C216.447 93.6931 212.51 91.6447 207.452 91.6447C203.995 91.6447 200.569 92.5729 197.176 94.4293C191.862 97.2459 187.765 100.415 184.884 103.935V151.081C184.884 156.842 185.268 160.587 186.036 162.316C186.868 164.044 188.053 165.356 189.589 166.252C191.19 167.085 194.391 167.501 199.193 167.501V170.957H155.689V167.501C159.723 167.501 162.54 167.085 164.14 166.252C165.741 165.356 166.957 163.98 167.79 162.124C168.622 160.203 169.038 156.522 169.038 151.081V117.474C169.038 107.808 168.75 101.567 168.174 98.7502C167.726 96.6378 167.021 95.1975 166.061 94.4293C165.101 93.5971 163.788 93.181 162.124 93.181C160.331 93.181 158.186 93.6611 155.689 94.6213L154.249 91.1646L180.754 80.4103H184.884V99.1343Z" fill="white"/>
<path opacity="0.2" d="M26 0L26 213" stroke="white"/>
<path opacity="0.2" d="M329 171.521L0 171.521" stroke="white"/>
<path opacity="0.2" d="M329 80.1016L-2.92063e-06 80.1016" stroke="white"/>
<path opacity="0.2" d="M83 0L83 213" stroke="white"/>
<path opacity="0.2" d="M155 0L155 213" stroke="white"/>
<path opacity="0.2" d="M305 0L305 213" stroke="white"/>
<circle opacity="0.2" cx="217.546" cy="126.094" r="44.928" stroke="white"/>
<circle opacity="0.2" cx="276.8" cy="126.094" r="44.928" stroke="white"/>
</svg>

<svg width="329" height="213" fill="none" xmlns="http://www.w3.org/2000/svg"><path d="M82.32 167.405v3.552H26.522v-3.552h4.61c5.378 0 9.283-1.569 11.716-4.705 1.537-2.049 2.305-6.978 2.305-14.787V63.799c0-6.594-.416-10.947-1.248-13.059-.64-1.6-1.953-2.977-3.938-4.129-2.817-1.536-5.762-2.304-8.835-2.304h-4.61v-3.553H82.32v3.553h-4.705c-5.314 0-9.188 1.568-11.62 4.705-1.601 2.048-2.401 6.977-2.401 14.787v84.114c0 6.593.416 10.946 1.248 13.058.64 1.601 1.985 2.977 4.034 4.129 2.752 1.537 5.665 2.305 8.739 2.305h4.705zm27.657-79.889v-4.513c6.594-3.905 11.076-7.554 13.445-10.946 1.665-2.433 2.497-5.346 2.497-8.738 0-1.985-.352-3.457-1.057-4.417-.768-.96-1.6-1.44-2.496-1.44-.705 0-1.633.223-2.785.672-1.665.576-3.042.864-4.13.864-2.561 0-4.834-.96-6.818-2.88-1.985-1.921-2.977-4.322-2.977-7.202 0-3.201.992-5.697 2.977-7.49 2.689-2.432 5.89-3.649 9.603-3.649 4.29 0 8.131 1.825 11.524 5.474 3.457 3.584 5.186 8.065 5.186 13.442 0 7.554-2.849 14.435-8.547 20.645-3.777 4.097-9.251 7.49-16.422 10.178zm74.907 11.618c6.402-6.401 10.179-10.082 11.332-11.042 2.881-2.433 5.986-4.321 9.315-5.665 3.329-1.345 6.626-2.017 9.892-2.017 5.506 0 10.243 1.6 14.213 4.801 3.969 3.201 6.626 7.842 7.971 13.923 6.594-7.681 12.164-12.706 16.709-15.075 4.546-2.432 9.22-3.649 14.021-3.649 4.674 0 8.804 1.217 12.389 3.65 3.649 2.368 6.53 6.272 8.643 11.714 1.408 3.712 2.113 9.538 2.113 17.475v37.832c0 5.505.416 9.282 1.248 11.331.64 1.408 1.825 2.624 3.553 3.648 1.729.961 4.546 1.441 8.451 1.441v3.456h-43.407v-3.456h1.825c3.777 0 6.722-.736 8.835-2.209 1.472-1.024 2.529-2.656 3.169-4.897.256-1.088.384-4.193.384-9.314v-37.832c0-7.169-.864-12.226-2.593-15.17-2.497-4.098-6.498-6.146-12.004-6.146-3.393 0-6.819.864-10.276 2.592-3.393 1.665-7.522 4.801-12.388 9.41l-.192 1.057.192 4.128v41.961c0 6.018.32 9.762.96 11.235.704 1.472 1.985 2.72 3.841 3.744 1.857.961 5.026 1.441 9.508 1.441v3.456h-44.464v-3.456c4.866 0 8.195-.576 9.988-1.729 1.856-1.152 3.137-2.88 3.841-5.185.32-1.088.48-4.257.48-9.506v-37.832c0-7.169-1.056-12.322-3.169-15.459-2.817-4.097-6.754-6.145-11.812-6.145-3.457 0-6.883.928-10.276 2.784-5.314 2.817-9.411 5.986-12.292 9.506v47.146c0 5.761.384 9.506 1.152 11.235.832 1.728 2.017 3.04 3.553 3.936 1.601.833 4.802 1.249 9.604 1.249v3.456h-43.504v-3.456c4.034 0 6.851-.416 8.451-1.249 1.601-.896 2.817-2.272 3.65-4.128.832-1.921 1.248-5.602 1.248-11.043v-33.607c0-9.666-.288-15.907-.864-18.724-.448-2.112-1.153-3.552-2.113-4.32-.96-.833-2.273-1.249-3.937-1.249-1.793 0-3.938.48-6.435 1.44l-1.44-3.456 26.505-10.755h4.13v18.724z" fill="#fff"/><path opacity=".2" d="M26 0v213m303-41.479H0m329-91.419H0M83 0v213M155 0v213M305 0v213" stroke="#fff"/><circle opacity=".2" cx="217.546" cy="126.094" r="44.928" stroke="#fff"/><circle opacity=".2" cx="276.8" cy="126.094" r="44.928" stroke="#fff"/></svg>
